src/assets/star-full.svg

<svg width="25" height="24" viewBox="0 0 25 24" fill="none" xmlns="http://www.w3.org/2000/svg">
<g clip-path="url(#clip0_49_2)">
<path d="M13.72 0.84C13.47 0.32 12.95 0 12.37 0C11.79 0 11.27 0.33 11.02 0.84L8.01002 7.04L1.28002 8.03C0.720019 8.11 0.250019 8.51 0.0800191 9.05C-0.0899809 9.59 0.0500191 10.18 0.450019 10.58L5.33002 15.41L4.18002 22.24C4.09002 22.8 4.32002 23.37 4.78002 23.71C5.24002 24.04 5.86002 24.09 6.36002 23.82L12.37 20.61L18.38 23.82C18.89 24.09 19.5 24.05 19.96 23.71C20.42 23.37 20.66 22.81 20.56 22.24L19.4 15.41L24.28 10.58C24.68 10.18 24.83 9.59 24.65 9.05C24.47 8.51 24.01 8.12 23.45 8.03L16.71 7.04L13.72 0.84Z" fill="black"/>
</g>
<defs>
<clipPath id="clip0_49_2">
<rect width="24.75" height="24" fill="white"/>
</clipPath>
</defs>
</svg>

<?xml version="1.0" encoding="UTF-8"?>
<svg id="Calque_2" data-name="Calque 2" xmlns="http://www.w3.org/2000/svg" viewBox="0 0 24.75 24">
  <defs>
    <style>
      .cls-1 {
        fill: #ff6060;
      }
    </style>
  </defs>
  <g id="Calque_1-2" data-name="Calque 1">
    <path class="cls-1" d="m13.72.84c-.25-.52-.77-.84-1.35-.84s-1.1.33-1.35.84l-3.01,6.2-6.73.99c-.56.08-1.03.48-1.2,1.02-.17.54-.03,1.13.37,1.53l4.88,4.83-1.15,6.83c-.09.56.14,1.13.6,1.47.46.33,1.08.38,1.58.11l6.01-3.21,6.01,3.21c.51.27,1.12.23,1.58-.11.46-.34.7-.9.6-1.47l-1.16-6.83,4.88-4.83c.4-.4.55-.99.37-1.53-.18-.54-.64-.93-1.2-1.02l-6.74-.99L13.72.84Z"/>
  </g>
</svg>
